contributed-vectors/franco_kernel_manager.svg

<svg xmlns="http://www.w3.org/2000/svg" xml:space="preserve" style="fill-rule:evenodd;clip-rule:evenodd;stroke-linecap:round;stroke-linejoin:round;stroke-miterlimit:1.5" viewBox="0 0 192 192"><path d="M164.5 21.5c0-5.519-4.481-10-10-10h-133c-5.519 0-10 4.481-10 10v133c0 5.519 4.481 10 10 10h133c5.519 0 10-4.481 10-10v-133Z" style="fill:#56595b" transform="translate(8 8)"/><circle cx="96" cy="96" r="50.178" style="fill:none;stroke:#96dfd3;stroke-width:4.06px"/><path d="M123.016 117.081a1.837 1.837 0 0 1-1.799 1.419H62.15c-.559 0-1.088-.25-1.438-.68a1.79 1.79 0 0 1-.361-1.529l9.381-41.372a1.838 1.838 0 0 1 1.799-1.419h59.067c.56 0 1.089.25 1.439.68.349.429.482.992.36 1.529l-9.381 41.372Z" style="fill:none;stroke:#73ada4;stroke-width:2px" transform="matrix(1.02603 0 0 1.04261 -2.882 -3.979)"/><path d="m75.519 82.402-7.553 27.188h8.657l2.627-9.596h7.762l1.548-5.941h-7.727l1.462-5.821h11.822l1.555-5.83H75.519ZM98.306 82.402l-7.307 27.188h8.287l1.982-7.469 4.332-3.745 2.546 11.214h9.171l-4.675-17.108 11.712-10.08h-9.306l-11.129 10.62 2.77-10.62h-8.383" style="fill:#96dfd3"/></svg>

<?xml version="1.0" encoding="UTF-8" standalone="no"?>
<!DOCTYPE svg PUBLIC "-//W3C//DTD SVG 1.1//EN" "http://www.w3.org/Graphics/SVG/1.1/DTD/svg11.dtd">
<svg width="100%" height="100%" viewBox="0 0 192 192" version="1.1" xmlns="http://www.w3.org/2000/svg" xmlns:xlink="http://www.w3.org/1999/xlink" xml:space="preserve" xmlns:serif="http://www.serif.com/" style="fill-rule:evenodd;clip-rule:evenodd;stroke-linecap:round;stroke-linejoin:round;stroke-miterlimit:1.5;">
    <g id="Layer2">
        <g transform="matrix(1,0,0,1,8,8)">
            <path d="M164.5,21.5C164.5,15.981 160.019,11.5 154.5,11.5L21.5,11.5C15.981,11.5 11.5,15.981 11.5,21.5L11.5,154.5C11.5,160.019 15.981,164.5 21.5,164.5L154.5,164.5C160.019,164.5 164.5,160.019 164.5,154.5L164.5,21.5Z" style="fill:rgb(86,89,91);"/>
        </g>
        <circle cx="96" cy="96" r="50.178" style="fill:none;stroke:rgb(150,223,211);stroke-width:4.06px;"/>
        <g transform="matrix(1.02603,0,0,1.04261,-2.88241,-3.97898)">
            <path d="M123.016,117.081C122.828,117.91 122.081,118.5 121.217,118.5C112.937,118.5 72.299,118.5 62.15,118.5C61.591,118.5 61.062,118.25 60.712,117.82C60.362,117.391 60.229,116.828 60.351,116.291C62.15,108.356 68.259,81.417 69.732,74.919C69.92,74.09 70.668,73.5 71.531,73.5C79.811,73.5 120.45,73.5 130.598,73.5C131.158,73.5 131.687,73.75 132.037,74.18C132.386,74.609 132.519,75.172 132.397,75.709C130.598,83.644 124.49,110.583 123.016,117.081Z" style="fill:none;stroke:rgb(115,173,164);stroke-width:2px;"/>
        </g>
        <path d="M75.519,82.402L67.966,109.59L76.623,109.59L79.25,99.994L87.012,99.994L88.56,94.053L80.833,94.053L82.295,88.232L94.117,88.232L95.672,82.402L75.519,82.402Z" style="fill:rgb(150,223,211);"/>
        <path d="M98.306,82.402L90.999,109.59L99.286,109.59L101.268,102.121L105.6,98.376L108.146,109.59L117.317,109.59L112.642,92.482L124.354,82.402L115.048,82.402L103.919,93.022L106.689,82.402L98.306,82.402" style="fill:rgb(150,223,211);"/>
    </g>
</svg>
